X: 122
Q: "Slowish"
M: 6/8
L: 1/8
K: Dmix
f |\
d2A AGF | d2A A2f | d2A AGF | BGE E2f |\
d2A AGF | d2f e2g | fed cdB | AFF ~F2 :|
|: E |\


